X:16
T:Rakes of Marlow
Z:Jack Campin  *  May 2000  *  http://www.campin.me.uk/
M:2/4
L:1/8
C:Beck (1784)
K:G
GB    GB|GB c/B/A/G/|FA       FA|FA    B/A/G/F/|\
GB    GB|GB d>B/    |c/B/A/G/ FA|G2    G   z  :|
gf/e/ dc|Bc d2      |gf/e/    dc|Bd/g/ A2      |\
gf/e/ dc|Bc d2      |c/B/A/G/ FA|G2    G   z  :|

